app/images/stats_car_engine.svg

<svg width="76" height="76" viewBox="0 0 76 76" fill="none" xmlns="http://www.w3.org/2000/svg">
<g clip-path="url(#clip0)">
<path d="M17.1672 56.3892H19.6186V58.8405H17.1672V56.3892Z" fill="white"/>
<path d="M71.0004 9.19075L48.7381 0.281165C46.574 -0.521996 44.3027 0.560656 43.5097 2.55479L41.9543 6.43415C41.7729 6.92191 41.6808 7.41446 41.6808 7.90102C41.6808 8.70897 41.9333 9.49238 42.3768 10.1543L38.7931 18.393H37.2095L33.6282 10.1579C34.0741 9.49478 34.3266 8.71017 34.3266 7.90102C34.3266 7.41565 34.2345 6.92191 34.0424 6.40243L32.4995 2.55719C31.7035 0.557064 29.534 -0.565685 27.24 0.290741L5.00947 9.18955C3.46 9.80479 2.45874 11.2818 2.45874 12.951C2.45874 13.4364 2.55091 13.9301 2.74302 14.4502L4.2865 18.2948C4.86822 19.7587 6.22019 20.7205 7.77445 20.8246L18.975 46.5838H15.9413C13.9143 46.5838 12.2642 48.2338 12.2642 50.2609C12.2642 51.255 12.6527 52.179 13.3355 52.8445C13.5636 53.0791 13.8245 53.2629 14.0992 53.4245C12.9914 54.5682 12.3014 56.1212 12.3014 57.8359C12.3014 58.3111 12.3516 58.7635 12.4528 59.216L16.1843 76.0004H54.9048L60.2253 53.8254C65.0167 53.1707 68.6459 49.0843 68.6459 44.1325C68.6459 39.9323 65.9653 36.2552 62.1165 34.8985L68.233 20.8246C69.7872 20.7205 71.1404 19.7587 71.7215 18.2984L73.2764 14.4197C73.4565 13.9301 73.5487 13.4376 73.5487 12.951C73.5487 11.2818 72.5474 9.80479 71.0004 9.19075V9.19075ZM42.3672 16.3264L46.1077 17.904L47.0605 15.6454L43.3452 14.0773L44.3727 11.7181L65.7912 20.2902L64.599 23.0348L49.3377 16.6119L48.388 18.8724L63.6217 25.2827L62.4181 28.0513L47.7919 21.8983C47.7003 19.952 46.1006 18.393 44.1322 18.393H41.4677L42.3672 16.3264ZM29.4472 48.6049C30.8178 46.5719 33.0998 45.3581 35.5523 45.3581C38.0049 45.3581 40.2875 46.5719 41.6574 48.6049C42.475 49.815 42.9065 51.2352 42.9065 52.7123C42.9065 54.1893 42.475 55.6101 41.6574 56.8196C40.2875 58.8533 38.0049 60.0664 35.5523 60.0664C31.4964 60.0664 28.1982 56.7682 28.1982 52.7123C28.1982 51.2352 28.6297 49.815 29.4472 48.6049V48.6049ZM31.8753 42.9068C30.4401 42.9068 29.1701 42.1018 28.5561 40.7947C28.5034 40.6858 28.4789 40.5685 28.437 40.4554H42.6784C42.1745 41.8858 40.8279 42.9068 39.2306 42.9068H31.8753ZM18.8757 40.2076L23.5947 38.226C24.01 39.192 24.8347 39.9311 25.8438 40.2597C25.8671 40.3931 25.8893 40.5278 25.921 40.6589L20.1331 43.0995L18.8757 40.2076ZM44.1322 20.8444C44.8078 20.8444 45.3578 21.395 45.3578 22.0701V28.1985H34.3266C32.2996 28.1985 30.6496 29.8485 30.6496 31.8756C30.6496 32.8696 31.038 33.7937 31.7209 34.4592C32.4085 35.1642 33.3326 35.5526 34.3266 35.5526H45.3578V36.7783C45.3578 37.454 44.8078 38.004 44.1322 38.004H26.9725C26.2974 38.004 25.7468 37.454 25.7468 36.7783V30.5763C25.7468 30.0029 25.8779 29.4415 26.1316 28.9424L29.1582 22.878C29.7806 21.6421 31.0739 20.8444 32.4516 20.8444H44.1322ZM49.3551 46.5838H43.1907C42.6886 45.9578 42.1183 45.4036 41.4911 44.9254C43.171 44.2635 44.4655 42.8822 45.0245 41.1885L49.1169 42.9104C49.0642 43.3137 49.0349 43.7195 49.0349 44.1325C49.0349 44.9709 49.1504 45.7885 49.3551 46.5838V46.5838ZM45.3578 33.1013H34.3266C33.9993 33.1013 33.6976 32.9762 33.4541 32.7266C33.226 32.5046 33.101 32.2029 33.101 31.8756C33.101 31.2005 33.6516 30.6499 34.3266 30.6499H45.3578V33.1013ZM23.9436 27.8394C23.6216 28.4732 23.4157 29.1728 23.3361 29.8928L15.7719 33.0695L14.5684 30.301L24.8826 25.9578L23.9436 27.8394ZM23.2954 32.568V35.6951L17.8989 37.9615L16.7493 35.3174L23.2954 32.568ZM44.6199 49.0352H50.3671C50.9297 50.0024 51.6455 50.8642 52.4941 51.5811L50.6442 56.3893H44.6199C45.0909 55.2289 45.3578 53.9906 45.3578 52.7123C45.3578 51.4339 45.0909 50.1963 44.6199 49.0352ZM49.7483 40.517L46.8104 39.2812C47.4256 38.6228 47.8092 37.7467 47.8092 36.7783V36.2846L51.3893 37.7945C50.6981 38.6061 50.1415 39.523 49.7483 40.517ZM53.4325 35.9955L47.8092 33.6237V30.4979L57.2215 34.4592C55.8546 34.6836 54.5822 35.2229 53.4325 35.9955ZM60.2379 33.0695L47.8092 27.8382V24.5657L61.4414 30.3022L60.2379 33.0695ZM32.4516 18.393C30.1558 18.393 28.0031 19.7204 26.9653 21.7834L26.5632 22.5901L13.5905 28.0513L12.3869 25.2839L33.6414 16.3264L34.5409 18.393H32.4516ZM6.56252 17.3845L5.03041 13.5662C4.95201 13.3556 4.91012 13.1425 4.91012 12.951C4.91012 12.2915 5.30511 11.7092 5.91796 11.4656L28.1222 2.57933C29.0612 2.23102 29.9093 2.67629 30.2229 3.46808L31.755 7.28578C31.8334 7.49645 31.8753 7.71011 31.8753 7.90102C31.8753 8.34629 31.6963 8.76044 31.363 9.07165C31.2283 9.20032 31.0506 9.31344 30.8704 9.38645L27.7326 10.6367L28.6393 12.9133L31.6377 11.7193L32.6695 14.0923L11.409 23.0372L10.2162 20.2932L26.2017 13.8936L25.2908 11.6188L8.64823 18.2793C8.55187 18.317 8.44774 18.3451 8.40106 18.3565C7.62902 18.463 6.8492 18.1063 6.56252 17.3845ZM21.1104 45.3486L26.9701 42.8774C27.6518 43.8051 28.5657 44.5065 29.619 44.9207C28.99 45.4 28.4178 45.9554 27.9139 46.5838H21.6472L21.1104 45.3486ZM52.9705 73.549H18.1503L14.8443 58.6815C14.7821 58.4044 14.7509 58.1273 14.7509 57.8359C14.7509 55.6873 16.5003 53.938 18.6488 53.938C20.23 53.938 21.6418 54.8782 22.2487 56.3343L27.3807 68.6462H34.5523C35.0598 70.0694 36.4082 71.0976 38.0037 71.0976C40.0308 71.0976 41.6808 69.4482 41.6808 67.4205C41.6808 67.2685 41.6538 67.1231 41.6353 66.9759L45.9061 64.8405L44.809 62.6477L40.5485 64.7782C39.8877 64.1409 38.993 63.7435 38.0037 63.7435C36.4082 63.7435 35.0598 64.7717 34.5523 66.1949H29.0145L24.5128 55.3905C23.5247 53.0187 21.2241 51.4866 18.65 51.4866H15.9413C15.6139 51.4866 15.3123 51.3615 15.0687 51.1119C14.8407 50.8899 14.7156 50.5883 14.7156 50.2609C14.7156 49.5858 15.2662 49.0352 15.9413 49.0352H26.4848C26.0143 50.1963 25.7468 51.4339 25.7468 52.7123C25.7468 58.119 30.1457 62.5178 35.5523 62.5178C38.5453 62.5178 41.3378 61.1503 43.1907 58.8407H52.3284L58.218 43.5244C58.3634 43.1497 58.7141 42.9068 59.1103 42.9068C59.637 42.9068 60.0661 43.3359 60.0661 43.8751C60.0661 43.9194 60.0613 43.9954 60.0392 44.0912L52.9705 73.549ZM36.778 67.4205C36.778 66.7455 37.3286 66.1949 38.0037 66.1949C38.6794 66.1949 39.2294 66.7455 39.2294 67.4205C39.2294 68.0962 38.6794 68.6462 38.0037 68.6462C37.3286 68.6462 36.778 68.0962 36.778 67.4205ZM66.1946 44.1325C66.1946 47.5019 63.9526 50.3321 60.8555 51.1939L62.4253 44.6507C62.487 44.3838 62.5175 44.1229 62.5175 43.8631C62.5175 41.9839 60.989 40.4554 59.1103 40.4554C57.6979 40.4554 56.4519 41.31 55.9306 42.6386L53.4439 49.1076C52.9412 48.5672 52.5109 47.9591 52.1901 47.2864C51.7227 46.2972 51.4863 45.2355 51.4863 44.1325C51.4863 43.5513 51.5551 42.9888 51.6982 42.4046C52.0806 40.7935 53.0064 39.3524 54.3177 38.341C55.611 37.3187 57.1748 36.7783 58.8404 36.7783C59.3396 36.7783 59.7902 36.8226 60.2403 36.916C63.6905 37.5773 66.1946 40.6134 66.1946 44.1325V44.1325ZM70.9896 13.5369L69.4437 17.3893C69.2013 17.9986 68.619 18.393 67.9595 18.393C67.8446 18.393 67.7207 18.372 67.6716 18.3673C67.5603 18.3451 67.4556 18.3158 67.3736 18.2853L45.146 9.38944C44.9581 9.31344 44.7803 9.20032 44.6445 9.07165L44.6385 9.06567C44.3111 8.76044 44.1322 8.34629 44.1322 7.90102C44.1322 7.71011 44.174 7.49645 44.2399 7.31511L45.7858 3.46329C46.0281 2.85403 46.6105 2.45904 47.27 2.45904C47.4609 2.45904 47.6746 2.50093 47.8571 2.56676L70.0937 11.4668C70.7029 11.7092 71.0973 12.2915 71.0973 12.951C71.0973 13.1425 71.0554 13.3556 70.9896 13.5369Z" fill="white"/>
<path d="M38.0033 52.7118C38.0033 53.0697 37.9225 53.4145 37.7544 53.7676L39.9694 54.8191C40.2919 54.1398 40.4547 53.4312 40.4547 52.7118C40.4547 50.0079 38.2559 47.8091 35.552 47.8091C34.8326 47.8091 34.124 47.9725 33.4453 48.2945L34.4968 50.5094C36.1834 49.7063 38.0033 51.002 38.0033 52.7118Z" fill="white"/>
<path d="M35.5519 57.6144C36.2713 57.6144 36.9799 57.4516 37.6592 57.129L36.607 54.914C34.9205 55.716 33.1005 54.4203 33.1005 52.7116C33.1005 52.3537 33.1813 52.0096 33.3495 51.6565L31.1345 50.605C30.812 51.2837 30.6492 51.9923 30.6492 52.7116C30.6492 55.4156 32.848 57.6144 35.5519 57.6144Z" fill="white"/>
<path d="M40.4546 23.2954H42.906V25.7468H40.4546V23.2954Z" fill="white"/>
<path d="M35.5522 23.2954H38.0036V25.7468H35.5522V23.2954Z" fill="white"/>
<path d="M30.6492 23.2954H33.1006V25.7468H30.6492V23.2954Z" fill="white"/>
</g>
<defs>
<clipPath id="clip0">
<rect width="76" height="76" fill="white"/>
</clipPath>
</defs>
</svg>

<svg width="76" height="76" fill="none" xmlns="http://www.w3.org/2000/svg"><g clip-path="url(#clip0)" fill="#fff"><path d="M17.167 56.39h2.452v2.45h-2.452v-2.45z"/><path d="M71 9.19L48.738.282c-2.164-.803-4.435.28-5.228 2.274l-1.556 3.88a4.2 4.2 0 00-.273 1.466c0 .808.252 1.591.696 2.253l-3.584 8.239H37.21l-3.58-8.235a4.054 4.054 0 00.698-2.257c0-.485-.093-.98-.285-1.499L32.5 2.557c-.796-2-2.965-3.123-5.259-2.266L5.01 9.19a4.025 4.025 0 00-2.551 3.761c0 .485.092.98.284 1.5l1.544 3.844a4.015 4.015 0 003.487 2.53l11.201 25.759h-3.034a3.682 3.682 0 00-3.677 3.677c0 .994.389 1.918 1.072 2.583.228.235.489.419.763.58a6.324 6.324 0 00-1.646 5.792L16.184 76h38.72l5.321-22.175a9.746 9.746 0 008.42-9.693c0-4.2-2.68-7.877-6.528-9.233l6.116-14.074a4.018 4.018 0 003.489-2.527l1.554-3.878c.18-.49.273-.982.273-1.469A4.024 4.024 0 0071 9.191zm-28.633 7.136l3.74 1.578.953-2.259-3.715-1.568 1.028-2.359L65.79 20.29l-1.19 2.745-15.261-6.423-.95 2.26 15.234 6.41-1.204 2.77-14.626-6.154c-.092-1.946-1.691-3.505-3.66-3.505h-2.664l.9-2.067zm-12.92 32.279a7.352 7.352 0 016.105-3.247 7.351 7.351 0 016.105 3.247 7.306 7.306 0 011.25 4.107 7.304 7.304 0 01-1.25 4.108 7.35 7.35 0 01-6.105 3.246 7.361 7.361 0 01-6.105-11.461zm2.428-5.698a3.632 3.632 0 01-3.319-2.112c-.053-.11-.077-.227-.119-.34h14.241a3.652 3.652 0 01-3.447 2.452h-7.356zm-13-2.7l4.72-1.981a3.682 3.682 0 002.249 2.034c.023.133.045.268.077.399l-5.788 2.44-1.257-2.891zm25.257-19.363c.676 0 1.226.551 1.226 1.226v6.128H34.327a3.682 3.682 0 00-3.677 3.678c0 .994.388 1.918 1.07 2.583a3.607 3.607 0 002.607 1.094h11.03v1.225c0 .676-.55 1.226-1.225 1.226h-17.16c-.675 0-1.225-.55-1.225-1.226v-6.202c0-.573.13-1.134.385-1.634l3.026-6.064a3.72 3.72 0 013.294-2.034h11.68zm5.223 25.74h-6.164a9.767 9.767 0 00-1.7-1.659 6.073 6.073 0 003.534-3.736l4.092 1.721a9.374 9.374 0 00.238 3.673zM45.358 33.1H34.327c-.328 0-.63-.125-.873-.374a1.174 1.174 0 01-.353-.851c0-.675.55-1.226 1.226-1.226h11.03V33.1zm-21.414-5.26a5.998 5.998 0 00-.608 2.054l-7.564 3.176-1.204-2.768 10.315-4.343-.94 1.881zm-.649 4.729v3.127L17.9 37.962l-1.15-2.645 6.546-2.749zM44.62 49.035h5.747a9.726 9.726 0 002.127 2.546l-1.85 4.808H44.62a9.757 9.757 0 00.738-3.677 9.76 9.76 0 00-.738-3.677zm5.128-8.518l-2.938-1.236a3.655 3.655 0 001-2.503v-.493l3.58 1.51a9.706 9.706 0 00-1.642 2.722zm3.684-4.522l-5.623-2.371v-3.126l9.413 3.961c-1.367.225-2.64.764-3.79 1.536zm6.806-2.925l-12.429-5.232v-3.272l13.632 5.736-1.203 2.767zM32.452 18.392a6.191 6.191 0 00-5.487 3.39l-.402.807-12.972 5.461-1.204-2.767 21.254-8.958.9 2.067h-2.09zm-25.89-1.009L5.03 13.566a1.798 1.798 0 01-.12-.615c0-.66.395-1.242 1.008-1.485l22.204-8.887c.94-.348 1.787.097 2.1.89l1.533 3.817c.078.21.12.424.12.615 0 .445-.179.86-.512 1.17a1.609 1.609 0 01-.493.315l-3.137 1.25.906 2.277 2.999-1.194 1.031 2.373-21.26 8.945-1.193-2.744 15.986-6.4-.911-2.274-16.643 6.66c-.096.038-.2.066-.247.078-.772.106-1.552-.25-1.838-.973zM21.11 45.35l5.86-2.472a6.007 6.007 0 002.649 2.044 9.78 9.78 0 00-1.705 1.663h-6.267l-.537-1.235zm31.86 28.2H18.15l-3.306-14.868a3.903 3.903 0 013.805-4.743c1.581 0 2.993.94 3.6 2.396l5.132 12.312h7.171c.508 1.423 1.856 2.452 3.452 2.452a3.681 3.681 0 003.677-3.677c0-.153-.027-.298-.046-.445l4.271-2.135-1.097-2.193-4.26 2.13a3.656 3.656 0 00-2.545-1.035c-1.596 0-2.944 1.029-3.452 2.452h-5.537L24.513 55.39a6.331 6.331 0 00-5.863-3.904h-2.709c-.327 0-.629-.126-.872-.375a1.174 1.174 0 01-.353-.851c0-.675.55-1.226 1.225-1.226h10.544a9.77 9.77 0 00-.738 3.677c0 5.407 4.399 9.806 9.805 9.806a9.784 9.784 0 007.639-3.677h9.137l5.89-15.317a.955.955 0 01.892-.617.96.96 0 01.93 1.184l-7.07 29.46zm-16.191-6.13c0-.674.55-1.225 1.226-1.225.675 0 1.225.55 1.225 1.226 0 .675-.55 1.225-1.225 1.225s-1.226-.55-1.226-1.225zm29.417-23.288c0 3.37-2.242 6.2-5.34 7.062l1.57-6.543a3.411 3.411 0 00-3.315-4.195 3.4 3.4 0 00-3.18 2.183l-2.486 6.469a7.29 7.29 0 01-1.254-1.822 7.327 7.327 0 01-.492-4.881 7.254 7.254 0 012.62-4.064 7.22 7.22 0 014.522-1.563c.5 0 .95.045 1.4.138a7.353 7.353 0 015.955 7.217zm4.795-30.595l-1.546 3.852a1.588 1.588 0 01-1.484 1.004c-.115 0-.24-.021-.288-.026a2.013 2.013 0 01-.298-.082L45.146 9.39a1.636 1.636 0 01-.502-.317l-.005-.006a1.576 1.576 0 01-.507-1.165c0-.19.042-.405.108-.586l1.546-3.852A1.588 1.588 0 0147.27 2.46c.19 0 .405.042.587.108l22.237 8.9a1.586 1.586 0 011.003 1.484c0 .191-.042.405-.107.586z"/><path d="M38.003 52.712c0 .358-.08.702-.249 1.056l2.215 1.051c.323-.68.486-1.388.486-2.107a4.908 4.908 0 00-4.903-4.903c-.72 0-1.428.163-2.107.486l1.052 2.214c1.686-.803 3.506.493 3.506 2.203zm-2.451 4.902a4.88 4.88 0 002.107-.485l-1.052-2.215c-1.687.802-3.507-.494-3.507-2.202 0-.358.081-.702.25-1.056l-2.216-1.051a4.877 4.877 0 00-.485 2.107 4.908 4.908 0 004.903 4.902zm4.903-34.319h2.451v2.452h-2.451v-2.452zm-4.903 0h2.452v2.452h-2.452v-2.452zm-4.902 0h2.45v2.452h-2.45v-2.452z"/></g><defs><clipPath id="clip0"><path fill="#fff" d="M0 0h76v76H0z"/></clipPath></defs></svg>
